; generated by PrusaSlicer 2.7.0+MacOS-arm64 on 2023-11-29 at 03:50:04 UTC


;
;
; 

; external perimeters extrusion width = 0.45mm
; perimeters extrusion width = 0.45mm
; infill extrusion width = 0.45mm
; solid infill extrusion width = 0.45mm
; top infill extrusion width = 0.40mm
; first layer extrusion width = 0.42mm

M73 P0 R44
M73 Q0 S45
M201 X1000 Y1000 Z200 E5000 ; sets maximum accelerations, mm/sec^2
M203 X200 Y200 Z12 E120 ; sets maximum feedrates, mm / sec
M204 S1250 T1250 ; sets acceleration (S) and retract acceleration (R), mm/sec^2
M205 X8.00 Y8.00 Z0.40 E4.50 ; sets the jerk limits, mm/sec
M205 S0 T0 ; sets the minimum extruding and travel feed rate, mm/sec

; printing object rollholder2-Body.stl id:0 copy 0
; stop printing object rollholder2-Body.stl id:0 copy 0
; printing object rollholder2-Body.stl id:0 copy 1
; stop printing object rollholder2-Body.stl id:0 copy 1

;TYPE:Custom
M862.3 P "MK3S" ; printer model check
M862.1 P0.4 ; nozzle diameter check
M115 U3.13.2 ; tell printer latest fw version
G90 ; use absolute coordinates
M83 ; extruder relative mode
M104 S230 ; set extruder temp
M140 S85 ; set bed temp
M190 S85 ; wait for bed temp
M109 S230 ; wait for extruder temp
G28 W ; home all without mesh bed level
G80 X102.434 Y69.4344 W45.1312 H71.1312 ; mesh bed levelling

G1 Z0.2 F720
G1 Y-3 F1000 ; go outside print area
G92 E0
G1 X60 E9 F1000 ; intro line
G1 X100 E12.5 F1000 ; intro line
M73 Q0 S44

G92 E0
M221 S95

; Don't change E values below. Excessive value can damage the printer.
M907 E430 ; set extruder motor current
G21 ; set units to millimeters
G90 ; use absolute coordinates
M83 ; use relative distances for extrusion
M900 K0.08 ; Filament gcode LA 1.5
M900 K45 ; Filament gcode LA 1.0

M107
;LAYER_CHANGE
;Z:0.2
;HEIGHT:0.2
;BEFORE_LAYER_CHANGE
G92 E0.0
;0.2


G1 E-1 F2100
G1 Z.2 F720
;AFTER_LAYER_CHANGE
;0.2
G1 X104.457 Y72.78 F10800
G1 Z.2 F720
G1 E1 F2100
M204 S800
;TYPE:Skirt/Brim
;WIDTH:0.42
G1 F1200
G1 X105.78 Y71.457 E.05866
G1 X106.637 Y70.857 E.0328
G1 X107.943 Y70.207 E.04574
G1 X109.751 Y69.723 E.05868
G1 X111 Y69.623 E.03929
G1 X139.207 Y69.632 E.88441
G1 X140.657 Y69.795 E.04575
G1 X142.057 Y70.207 E.04576
G1 X143.363 Y70.857 E.04574
G1 X144.538 Y71.723 E.04577
G1 X145.543 Y72.78 E.04573
G1 X146.351 Y73.995 E.04575
G1 X146.934 Y75.333 E.04576
G1 X147.277 Y76.751 E.04574
G1 X147.377 Y78 E.03929
G1 X147.377 Y132 E1.69313
G1 X147.205 Y133.657 E.05223
G1 X146.793 Y135.057 E.04576
G1 X146.351 Y136.005 E.0328
G1 X145.543 Y137.22 E.04575
G1 X144.22 Y138.543 E.05866
G1 X143.005 Y139.351 E.04575
G1 X142.057 Y139.793 E.0328
G1 X140.249 Y140.277 E.05868
G1 X139 Y140.377 E.03929
G1 X111 Y140.377 E.87792
G1 X109.343 Y140.205 E.05223
G1 X107.943 Y139.793 E.04576
G1 X106.995 Y139.351 E.0328
G1 X105.78 Y138.543 E.04575
G1 X104.723 Y137.538 E.04573
G1 X103.857 Y136.363 E.04577
G1 X103.066 Y134.667 E.05868
G1 X102.795 Y133.657 E.03279
G1 X102.632 Y132.207 E.04575
G1 X102.623 Y78 E1.69962
G1 X102.795 Y76.343 E.05223
G1 X103.207 Y74.943 E.04576
G1 X103.65 Y73.995 E.03281
G1 X104.423 Y72.83 E.04384
M204 S1000
; printing object rollholder2-Body.stl id:0 copy 0
;WIPE_START
G1 F8640
G1 X104.457 Y72.78 E-.01396
G1 X105.78 Y71.457 E-.43202
G1 X106.637 Y70.857 E-.24156
G1 X107.849 Y70.254 E-.31246
;WIPE_END
G1 Z.4 F720
G1 X119.386 Y84.667 F10800
G1 Z.2 F720
G1 E1 F2100
M204 S800
;TYPE:Perimeter
;WIDTH:0.419999
G1 F1200
G1 X119.357 Y84.722 E.00195
G1 X119.021 Y85.867 E.03741
G1 X118.913 Y86.989 E.03534
G1 X118.913 Y96.87 E.30981
G1 X117.436 Y101.213 E.14383
G1 X111.034 Y101.213 E.20073
G1 X110.095 Y101.131 E.02955
G1 X109.218 Y100.896 E.02847
G1 X108.395 Y100.512 E.02848
G1 X107.651 Y99.991 E.02848
G1 X107.009 Y99.349 E.02847
G1 X106.488 Y98.605 E.02848
G1 X106.104 Y97.782 E.02848
G1 X105.869 Y96.905 E.02847
G1 X105.787 Y95.966 E.02955
G1 X105.787 Y78.034 E.56224
G1 X105.869 Y77.095 E.02955
G1 X106.104 Y76.218 E.02847
G1 X106.488 Y75.395 E.02848
G1 X107.009 Y74.651 E.02848
G1 X107.651 Y74.009 E.02847
G1 X108.395 Y73.488 E.02848
G1 X109.218 Y73.104 E.02848
G1 X110.095 Y72.869 E.02847
G1 X111.034 Y72.787 E.02955
G1 X138.966 Y72.787 E.87579
G1 X139.905 Y72.869 E.02955
G1 X140.782 Y73.104 E.02847
G1 X141.605 Y73.488 E.02848
G1 X142.349 Y74.009 E.02848
G1 X142.991 Y74.651 E.02847
G1 X143.512 Y75.395 E.02848
G1 X143.896 Y76.218 E.02848
G1 X144.131 Y77.095 E.02847
G1 X144.213 Y78.274 E.03706
G1 X144.213 Y95.966 E.55472
G1 X144.131 Y96.905 E.02955
G1 X143.896 Y97.782 E.02847
G1 X143.512 Y98.605 E.02848
G1 X142.991 Y99.349 E.02848
G1 X142.349 Y99.991 E.02847
G1 X141.605 Y100.512 E.02848
G1 X140.782 Y100.896 E.02848
G1 X139.905 Y101.131 E.02847
G1 X138.966 Y101.213 E.02955
G1 X132.564 Y101.213 E.20073
G1 X131.087 Y96.87 E.14383
G1 X131.084 Y86.934 E.31154
G1 X130.932 Y85.673 E.03982
G1 X130.601 Y84.62 E.03461
G1 X130.029 Y83.573 E.03741
G1 X129.342 Y82.736 E.03395
G1 X128.335 Y81.909 E.04086
G1 X127.38 Y81.399 E.03395
G1 X126.242 Y81.042 E.0374
G1 X125.055 Y80.915 E.03743
G1 X123.758 Y81.042 E.04086
G1 X122.62 Y81.399 E.0374
G1 X121.573 Y81.971 E.03741
G1 X120.736 Y82.658 E.03395
G1 X119.993 Y83.546 E.0363
G1 X119.8 Y83.869 E.0118
G1 X119.413 Y84.614 E.02632
M204 S1000
G1 X119.712 Y84.848 F10800
M204 S800
;TYPE:External perimeter
G1 F1200
G1 X119.396 Y85.904 E.03456
G1 X119.29 Y86.989 E.03418
G1 X119.29 Y96.932 E.31176
G1 X117.706 Y101.59 E.15426
M73 Q1 S44
G1 X111.018 Y101.59 E.2097
M73 P1 R44
G1 X110.03 Y101.504 E.0311
G1 X109.089 Y101.251 E.03055
G1 X108.206 Y100.84 E.03054
G1 X107.408 Y100.281 E.03055
G1 X106.719 Y99.592 E.03055
G1 X106.16 Y98.794 E.03055
G1 X105.749 Y97.911 E.03054
G1 X105.496 Y96.97 E.03055
G1 X105.41 Y95.982 E.0311
G1 X105.41 Y78.018 E.56325
G1 X105.496 Y77.03 E.0311
G1 X105.749 Y76.089 E.03055
G1 X106.16 Y75.206 E.03054
G1 X106.719 Y74.408 E.03055
G1 X107.408 Y73.719 E.03055
G1 X108.206 Y73.16 E.03055
G1 X109.089 Y72.749 E.03054
G1 X110.03 Y72.496 E.03055
G1 X111.018 Y72.41 E.0311
G1 X138.982 Y72.41 E.87679
G1 X139.97 Y72.496 E.0311
G1 X140.911 Y72.749 E.03055
G1 X141.794 Y73.16 E.03054
G1 X142.592 Y73.719 E.03055
G1 X143.281 Y74.408 E.03055
G1 X143.84 Y75.206 E.03055
G1 X144.251 Y76.089 E.03054
G1 X144.504 Y77.03 E.03055
G1 X144.568 Y77.763 E.02307
G1 X144.59 Y78.274 E.01604
G1 X144.59 Y95.982 E.55522
G1 X144.504 Y96.97 E.0311
G1 X144.251 Y97.911 E.03055
G1 X143.84 Y98.794 E.03054
G1 X143.281 Y99.592 E.03055
G1 X142.592 Y100.281 E.03055
G1 X141.794 Y100.84 E.03055
G1 X140.911 Y101.251 E.03054
G1 X139.97 Y101.504 E.03055
G1 X138.982 Y101.59 E.0311
G1 X132.294 Y101.59 E.2097
G1 X130.71 Y96.932 E.15426
G1 X130.709 Y86.971 E.31232
G1 X130.571 Y85.783 E.0375
G1 X130.268 Y84.798 E.03231
G1 X129.738 Y83.812 E.0351
G1 X129.051 Y82.975 E.03395
G1 X128.157 Y82.242 E.03625
G1 X127.168 Y81.717 E.03511
G1 X126.096 Y81.396 E.03509
G1 X125.018 Y81.29 E.03396
G1 X123.868 Y81.403 E.03623
G1 X122.798 Y81.732 E.0351
G1 X121.812 Y82.262 E.0351
G1 X120.975 Y82.949 E.03395
G1 X120.285 Y83.785 E.03399
G1 X119.738 Y84.794 E.03599
M204 S1000
;WIPE_START
G1 F8640
G1 X119.712 Y84.848 E-.01384
G1 X119.396 Y85.904 E-.25452
G1 X119.29 Y86.989 E-.25172
G1 X119.29 Y89.067 E-.47992
;WIPE_END
G1 Z.4 F720
G1 X137.594 Y86.405 F10800
G1 Z.2 F720
G1 E1 F2100
M204 S800
;TYPE:Perimeter
G1 F1200
G1 X137.737 Y85.989 E.01379
G1 X137.832 Y85.785 E.00706
G1 X138.124 Y85.365 E.01604
G1 X138.532 Y84.994 E.01729
G1 X139.055 Y84.701 E.0188
G1 X139.633 Y84.542 E.0188
G1 X140.232 Y84.525 E.01879
G1 X140.817 Y84.653 E.01878
G1 X141.355 Y84.917 E.01879
G1 X141.815 Y85.301 E.01879
G1 X142.168 Y85.785 E.01878
G1 X142.396 Y86.339 E.01878
G1 X142.485 Y86.932 E.0188
G1 X142.429 Y87.528 E.01877
G1 X142.232 Y88.094 E.01879
G1 X141.905 Y88.597 E.01881
G1 X141.468 Y89.006 E.01877
G1 X140.945 Y89.299 E.0188
G1 X140.367 Y89.458 E.0188
G1 X139.768 Y89.475 E.01879
G1 X139.183 Y89.347 E.01878
G1 X138.645 Y89.083 E.01879
G1 X138.185 Y88.699 E.01879
G1 X137.832 Y88.215 E.01878
G1 X137.604 Y87.661 E.01878
G1 X137.515 Y87.068 E.0188
G1 X137.571 Y86.472 E.01877
G1 X137.575 Y86.462 E.00034
M204 S1000
G1 X137.962 Y86.473 F10800
M204 S800
;TYPE:External perimeter
G1 F1200
G1 X138.121 Y86.039 E.01449
G1 X138.405 Y85.618 E.01592
G1 X138.783 Y85.276 E.01598
G1 X139.23 Y85.035 E.01592
G1 X139.723 Y84.908 E.01596
G1 X140.232 Y84.902 E.01596
G1 X140.727 Y85.019 E.01595
G1 X141.18 Y85.25 E.01594
G1 X141.564 Y85.584 E.01596
G1 X141.858 Y85.999 E.01595
G1 X142.043 Y86.473 E.01595
G1 X142.11 Y86.977 E.01594
G1 X142.054 Y87.483 E.01596
G1 X141.879 Y87.961 E.01596
G1 X141.595 Y88.382 E.01592
G1 X141.217 Y88.724 E.01598
G1 X140.77 Y88.965 E.01592
G1 X140.277 Y89.092 E.01596
G1 X139.768 Y89.098 E.01596
G1 X139.273 Y88.981 E.01595
G1 X138.82 Y88.75 E.01594
G1 X138.436 Y88.416 E.01596
G1 X138.142 Y88.001 E.01595
G1 X137.957 Y87.527 E.01595
G1 X137.89 Y87.023 E.01594
G1 X137.944 Y86.53 E.01555
M204 S1000
;WIPE_START
G1 F8640
G1 X137.962 Y86.473 E-.0138
G1 X138.121 Y86.039 E-.10673
G1 X138.405 Y85.618 E-.11726
G1 X138.783 Y85.276 E-.1177
G1 X139.23 Y85.035 E-.11726
G1 X139.723 Y84.908 E-.11755
G1 X140.232 Y84.902 E-.11754
G1 X140.727 Y85.019 E-.11745
G1 X141.18 Y85.25 E-.11741
G1 X141.367 Y85.413 E-.0573
;WIPE_END
G1 Z.4 F720
G1 X110.354 Y84.542 F10800
G1 Z.2 F720
G1 E1 F2100
M204 S800
;TYPE:Perimeter
G1 F1200
G1 X110.817 Y84.653 E.01493
G1 X111.355 Y84.917 E.01879
G1 X111.815 Y85.301 E.01879
G1 X112.168 Y85.785 E.01878
G1 X112.396 Y86.339 E.01878
G1 X112.485 Y86.932 E.0188
G1 X112.429 Y87.528 E.01877
G1 X112.232 Y88.094 E.01879
G1 X111.905 Y88.597 E.01881
G1 X111.468 Y89.006 E.01877
G1 X110.945 Y89.299 E.0188
G1 X110.367 Y89.458 E.0188
G1 X109.768 Y89.475 E.01879
G1 X109.183 Y89.347 E.01878
G1 X108.645 Y89.083 E.01879
G1 X108.185 Y88.699 E.01879
G1 X107.832 Y88.215 E.01878
G1 X107.604 Y87.661 E.01878
G1 X107.515 Y87.068 E.0188
G1 X107.571 Y86.472 E.01877
G1 X107.768 Y85.906 E.01879
G1 X108.095 Y85.403 E.01881
G1 X108.532 Y84.994 E.01877
G1 X108.645 Y84.917 E.00429
G1 X109.183 Y84.653 E.01879
G1 X109.768 Y84.525 E.01878
G1 X110.295 Y84.53 E.01652
M204 S1000
G1 X110.295 Y84.913 F10800
M204 S800
;TYPE:External perimeter
G1 F1200
G1 X110.77 Y85.035 E.01538
G1 X111.217 Y85.276 E.01592
G1 X111.59 Y85.611 E.01572
G1 X111.879 Y86.039 E.01619
G1 X112.054 Y86.517 E.01596
G1 X112.11 Y87.023 E.01596
G1 X112.043 Y87.527 E.01594
G1 X111.858 Y88.001 E.01595
G1 X111.564 Y88.416 E.01595
G1 X111.18 Y88.75 E.01596
G1 X110.727 Y88.981 E.01594
G1 X110.232 Y89.098 E.01595
G1 X109.723 Y89.092 E.01596
G1 X109.23 Y88.965 E.01596
G1 X108.783 Y88.724 E.01592
G1 X108.405 Y88.382 E.01598
G1 X108.121 Y87.961 E.01592
G1 X107.946 Y87.483 E.01596
G1 X107.89 Y86.977 E.01596
G1 X107.957 Y86.473 E.01594
G1 X108.142 Y85.999 E.01595
G1 X108.436 Y85.584 E.01595
G1 X108.82 Y85.25 E.01596
G1 X109.273 Y85.019 E.01594
G1 X109.768 Y84.902 E.01595
G1 X110.236 Y84.907 E.01467
M204 S1000
;WIPE_START
G1 F8640
G1 X110.295 Y84.913 E-.01369
G1 X110.77 Y85.035 E-.11324
G1 X111.217 Y85.276 E-.11726
G1 X111.59 Y85.611 E-.11576
G1 X111.879 Y86.039 E-.11925
G1 X112.054 Y86.517 E-.11754
G1 X112.11 Y87.023 E-.11755
G1 X112.043 Y87.527 E-.1174
G1 X111.858 Y88.001 E-.11749
G1 X111.731 Y88.181 E-.05082
;WIPE_END
G1 Z.4 F720
G1 X143.388 Y75.53 F10800
G1 Z.2 F720
G1 E1 F2100
M204 S800
;TYPE:Solid infill
;WIDTH:0.423325
G1 F1200
G1 X142.122 Y74.264 E.05663
G1 X141.435 Y73.783 E.02653
G1 X140.813 Y73.493 E.02171
G1 X143.507 Y76.187 E.12051
G1 X143.576 Y76.335 E.00517
G1 X143.744 Y76.962 E.02053
G1 X140.038 Y73.256 E.16578
G1 X139.846 Y73.205 E.00628
G1 X139.41 Y73.167 E.01384
G1 X143.833 Y77.59 E.19785
G1 X143.874 Y78.168 E.01833
G1 X138.832 Y73.126 E.22554
G1 X138.294 Y73.126 E.01702
G1 X143.874 Y78.706 E.24961
G1 X143.874 Y79.244 E.01702
G1 X137.756 Y73.126 E.27367
G1 X137.218 Y73.126 E.01702
G1 X143.874 Y79.782 E.29774
G1 X143.874 Y80.32 E.01702
M73 P1 R43
G1 X136.68 Y73.126 E.32181
G1 X136.142 Y73.126 E.01702
G1 X143.874 Y80.858 E.34587
G1 X143.874 Y81.396 E.01702
G1 X135.604 Y73.126 E.36994
G1 X135.066 Y73.126 E.01702
G1 X143.874 Y81.934 E.39401
G1 X143.874 Y82.472 E.01702
G1 X134.528 Y73.126 E.41807
G1 X133.99 Y73.126 E.01702
G1 X143.874 Y83.01 E.44214
G1 X143.874 Y83.548 E.01702
G1 X133.452 Y73.126 E.4662
G1 X132.914 Y73.126 E.01702
G1 X143.874 Y84.086 E.49027
G1 X143.874 Y84.624 E.01702
G1 X132.376 Y73.126 E.51434
G1 X131.838 Y73.126 E.01702
G1 X143.874 Y85.162 E.5384
G1 X143.874 Y85.7 E.01702
G1 X131.3 Y73.126 E.56247
G1 X130.762 Y73.126 E.01702
G1 X143.874 Y86.238 E.58654
G1 X143.874 Y86.776 E.01702
G1 X130.225 Y73.126 E.61058
G1 X129.687 Y73.126 E.01702
G1 X140.878 Y84.318 E.50063
G1 X141.094 Y84.396 E.00726
G1 X141.521 Y84.62 E.01525
G1 X141.686 Y84.734 E.00634
G1 X142.046 Y85.053 E.01521
G1 X142.179 Y85.203 E.00634
G1 X142.453 Y85.6 E.01526
G1 X142.546 Y85.777 E.00632
G1 X142.673 Y86.113 E.01136
G1 X143.874 Y87.313 E.0537
G1 X143.874 Y87.851 E.01702
G1 X142.809 Y86.787 E.04762
G1 X142.823 Y87.1 E.00991
G1 X142.796 Y87.312 E.00676
G1 X143.874 Y88.389 E.0482
G1 X143.874 Y88.927 E.01702
G1 X142.717 Y87.771 E.05173
G1 X142.569 Y88.161 E.01319
G1 X143.874 Y89.465 E.05835
G1 X143.874 Y90.003 E.01702
G1 X142.378 Y88.508 E.0669
G1 X142.156 Y88.823 E.01219
M73 Q2 S44
G1 X143.874 Y90.541 E.07685
G1 X143.874 Y91.079 E.01702
M73 P2 R43
G1 X141.884 Y89.09 E.089
G1 X141.589 Y89.333 E.01209
G1 X143.874 Y91.617 E.10219
G1 X143.874 Y92.155 E.01702
G1 X141.244 Y89.525 E.11765
G1 X141.094 Y89.604 E.00536
G1 X140.865 Y89.685 E.00768
G1 X143.874 Y92.693 E.13458
G1 X143.874 Y93.231 E.01702
G1 X140.433 Y89.791 E.1539
G1 X140.24 Y89.814 E.00615
G1 X139.915 Y89.811 E.01028
G1 X143.874 Y93.769 E.17707
G1 X143.874 Y94.307 E.01702
G1 X139.038 Y89.471 E.21633
M204 S1000
;WIPE_START
G1 F8640
G1 X142.1 Y92.533 E-1
;WIPE_END
G1 Z.4 F720
G1 X140.398 Y84.376 F10800
G1 Z.2 F720
G1 E1 F2100
M204 S800
G1 F1200
G1 X129.149 Y73.126 E.50322
G1 X128.611 Y73.126 E.01702
G1 X139.679 Y84.195 E.49512
G1 X139.236 Y84.29 E.01433
G1 X128.073 Y73.126 E.49937
G1 X127.535 Y73.126 E.01702
G1 X138.84 Y84.432 E.50573
G1 X138.492 Y84.622 E.01254
G1 X126.997 Y73.126 E.51422
G1 X126.459 Y73.126 E.01702
G1 X138.186 Y84.854 E.5246
G1 X137.904 Y85.11 E.01205
G1 X125.921 Y73.126 E.53605
G1 X125.383 Y73.126 E.01702
G1 X137.674 Y85.418 E.54983
M73 Q2 S43
G1 X137.541 Y85.609 E.00736
G1 X137.468 Y85.75 E.00502
G1 X124.845 Y73.126 E.56468
G1 X124.307 Y73.126 E.01702
G1 X137.318 Y86.137 E.58202
G1 X137.236 Y86.422 E.00938
G1 X137.217 Y86.575 E.00488
G1 X123.769 Y73.126 E.60159
G1 X123.231 Y73.126 E.01702
G1 X137.177 Y87.073 E.62386
G1 X137.242 Y87.625 E.01758
G1 X137.27 Y87.704 E.00265
G1 X122.693 Y73.126 E.65209
G1 X122.155 Y73.126 E.01702
G1 X143.874 Y94.845 E.97155
G1 X143.874 Y95.383 E.01702
G1 X121.617 Y73.126 E.99562
G1 X121.079 Y73.126 E.01702
G1 X143.874 Y95.921 E1.01968
G1 X143.833 Y96.418 E.01577
G1 X120.541 Y73.126 E1.04191
G1 X120.003 Y73.126 E.01702
G1 X143.78 Y96.903 E1.06361
G1 X143.666 Y97.328 E.01392
G1 X130.964 Y84.625 E.56822
G1 X131.2 Y85.399 E.0256
G1 X143.541 Y97.74 E.55205
G1 X143.37 Y98.107 E.01281
G1 X131.337 Y86.074 E.53827
G1 X131.396 Y86.671 E.01898
G1 X143.193 Y98.469 E.52773
G1 X142.972 Y98.785 E.0122
G1 X131.426 Y87.24 E.51646
G1 X131.426 Y87.778 E.01702
M73 P3 R43
G1 X142.75 Y99.101 E.50653
G1 X142.485 Y99.375 E.01206
M73 Q3 S43
G1 X131.426 Y88.316 E.4947
G1 X131.426 Y88.854 E.01702
G1 X142.216 Y99.644 E.48267
G1 X142.13 Y99.73 E.00385
G1 X141.915 Y99.88 E.00829
G1 X131.426 Y89.392 E.46918
G1 X131.426 Y89.93 E.01702
G1 X141.599 Y100.102 E.45504
G1 X141.435 Y100.217 E.00634
G1 X141.258 Y100.299 E.00617
G1 X131.426 Y90.468 E.43979
G1 X131.426 Y91.006 E.01702
G1 X140.891 Y100.47 E.42337
G1 X140.665 Y100.576 E.0079
G1 X140.502 Y100.619 E.00533
G1 X131.426 Y91.544 E.40597
G1 X131.426 Y92.082 E.01702
G1 X140.078 Y100.733 E.38701
G1 X139.846 Y100.795 E.0076
G1 X139.622 Y100.815 E.00711
G1 X131.426 Y92.62 E.36661
G1 X131.426 Y93.157 E.01699
G1 X139.127 Y100.858 E.34449
G1 X138.605 Y100.874 E.01652
G1 X131.426 Y93.695 E.32114
G1 X131.426 Y94.233 E.01702
G1 X138.067 Y100.874 E.29707
G1 X137.529 Y100.874 E.01702
G1 X131.426 Y94.771 E.273
